svgs/genius.svg

<svg width="24" height="24" viewBox="0 0 24 24" fill="none" xmlns="http://www.w3.org/2000/svg">
<path d="M17.3646 2C17.3655 2.00095 17.3655 2.00277 17.3664 2.00372C17.5293 2.24658 17.6793 2.49807 17.8222 2.75521C17.8707 2.84283 17.915 2.93168 17.9617 3.02121C18.0598 3.20978 18.1522 3.4017 18.2388 3.59598C18.2798 3.68836 18.3217 3.77981 18.3597 3.87314C18.4664 4.13409 18.5661 4.3997 18.6518 4.67113C18.6585 4.69304 18.6674 4.71247 18.6741 4.73437C18.7646 5.02676 18.8381 5.32719 18.9029 5.62909C18.9229 5.72052 18.9397 5.81201 18.9568 5.90439C18.9997 6.13106 19.0334 6.36025 19.061 6.59263C19.0724 6.68692 19.0841 6.78104 19.0926 6.87723C19.1222 7.19437 19.1429 7.51601 19.1429 7.84077C19.1429 11.7417 17.0062 15.1395 13.8434 16.9423C13.111 17.3595 12.3226 17.6865 11.494 17.9189C11.4064 17.9437 11.3175 17.9658 11.2299 17.9877C10.9128 18.0677 10.5912 18.1317 10.2645 18.1812C10.1559 18.1983 10.0485 18.2181 9.93899 18.2314C9.51994 18.2828 9.0981 18.317 8.66667 18.317C8.3419 18.317 8.02027 18.2972 7.70313 18.2686C7.60789 18.26 7.51376 18.2465 7.41853 18.2351C7.18615 18.2075 6.95695 18.1729 6.73028 18.131C6.6379 18.1138 6.54641 18.0979 6.45499 18.0789C6.15213 18.0141 5.8517 17.9405 5.56027 17.8501C5.53836 17.8434 5.51893 17.8326 5.49702 17.8259C5.22655 17.7402 4.95999 17.6424 4.69903 17.5357C4.6057 17.4976 4.51426 17.4558 4.42188 17.4148C4.22664 17.3281 4.03472 17.2357 3.8471 17.1376C3.75757 17.091 3.66872 17.0449 3.5811 16.9963C3.32491 16.8534 3.07247 16.7034 2.82961 16.5405C2.82866 16.5396 2.82685 16.5396 2.82589 16.5387C4.70685 19.3339 7.90095 21.1741 11.5238 21.1741C17.3095 21.1741 22 16.4836 22 10.6979C22 7.07506 20.1608 3.88095 17.3646 2ZM4.36979 3.07887C4.04217 3.38649 3.73202 3.71348 3.44345 4.05729C2.69774 4.95062 2.15253 6.01771 2.03348 7.17485C2.01062 7.3939 2 7.61601 2 7.84077C2 10.4179 3.46396 12.6501 5.60491 13.7597C5.12967 12.8425 4.85714 11.8027 4.85714 10.6979C4.85714 8.88268 5.58476 7.23836 6.7619 6.03646V3.07887H4.36979ZM11.5238 3.07887V5.93601V6.4122C11.5238 7.54839 10.7266 8.49649 9.66183 8.73363C9.85897 9.84887 10.8276 10.6979 12 10.6979C13.3152 10.6979 14.381 9.6322 14.381 8.31696V5.93601H15.3333L14.381 3.07887H11.5238Z" fill="black"/>
</svg>

<svg width="24" height="24" viewBox="0 0 24 24" fill="none" xmlns="http://www.w3.org/2000/svg"><path d="m17.365 2 .001.004c.163.243.313.494.456.751.049.088.093.177.14.266.098.189.19.38.277.575.04.092.083.184.12.277.107.261.207.527.293.798.006.022.015.041.022.063.09.293.164.593.229.895a10.108 10.108 0 0 1 .158.964c.011.094.023.188.032.284.03.317.05.639.05.964 0 3.9-2.137 7.298-5.3 9.101-.732.418-1.52.744-2.349.977a10.17 10.17 0 0 1-1.23.262c-.108.017-.216.037-.325.05-.42.052-.84.086-1.272.086-.325 0-.647-.02-.964-.048-.095-.009-.19-.022-.284-.034a10.775 10.775 0 0 1-.689-.104c-.092-.017-.184-.033-.275-.052a10.293 10.293 0 0 1-.895-.229c-.022-.007-.041-.017-.063-.024a10.46 10.46 0 0 1-.798-.29c-.093-.038-.185-.08-.277-.121a10 10 0 0 1-.575-.277 10.728 10.728 0 0 1-1.017-.597l-.004-.002a10.468 10.468 0 0 0 8.698 4.635C17.31 21.174 22 16.484 22 10.698 22 7.075 20.16 3.88 17.365 2ZM4.37 3.079c-.328.307-.638.634-.927.978-.745.894-1.29 1.96-1.41 3.118a6.662 6.662 0 0 0 3.571 6.585 6.635 6.635 0 0 1-.747-3.062c0-1.815.728-3.46 1.905-4.662V3.08H4.37Zm7.154 0v3.333a2.38 2.38 0 0 1-1.862 2.322A2.376 2.376 0 0 0 12 10.698a2.38 2.38 0 0 0 2.381-2.381V5.936h.952l-.952-2.857h-2.857Z" fill="#000"/></svg>
